X:1
T: A Starry Night for a Ramble
C: J-8
M: 6/8
Z:
R: jig
K: D
g| "D"f2d A2F| "G"G3  B2B| "D"A2d c2d| "A"e3 efg|
   "D"fed A2F| "G"G2A BcB| "D"A2d "A"c2 e| "D"d3- d2 :|
|:\
f| "G"g2g gfe| "D"f2f fed| "A"e2e efg| "D"a3- a2 f|
   "G"gag gfd| "D"fgf fed| "A"efe efg| "A7"a3- a2 :|
%
